src/assets/img/providers/macawgaming-g.svg

<svg width="112" height="28" viewBox="0 0 112 28" fill="none" xmlns="http://www.w3.org/2000/svg">
<g clip-path="url(#clip0_4132_7047)">
<path fill-rule="evenodd" clip-rule="evenodd" d="M11.7987 0.000976562H14.2326C14.9477 0.115848 15.6556 0.224977 16.3563 0.328361C19.8915 0.845284 22.8193 2.35441 25.1397 4.85575C25.5877 5.33821 25.938 5.8939 26.1907 6.52282C26.4147 7.08282 26.6962 7.61554 27.0351 8.12098C28.9764 11.0071 29.6484 14.1302 29.0511 17.4902C28.2843 21.8008 25.8318 25.0172 21.6935 27.1394C21.4753 27.2514 21.415 27.1954 21.5126 26.9714C22.0209 25.8084 22.2952 24.6324 22.3354 23.4434C22.3361 23.4113 22.3292 23.3794 22.3152 23.3504C22.3012 23.3215 22.2805 23.2963 22.2549 23.2769C22.2292 23.2575 22.1992 23.2445 22.1675 23.239C22.1359 23.2336 22.1033 23.2357 22.0726 23.2453C19.7579 23.9862 17.4433 23.8225 15.1286 22.7542C14.8874 22.6451 14.8414 22.6982 14.9907 22.9136C16.2256 24.7027 17.8037 26.1128 19.7249 27.1437C20.1672 27.3792 20.1384 27.5185 19.6387 27.5616C13.3581 28.1072 8.73167 25.6576 5.75936 20.2127C5.73352 20.1638 5.74357 20.1251 5.78952 20.0964H5.79382C5.8369 20.0705 5.8728 20.0763 5.90152 20.1136C8.42582 23.521 12.1649 26.3037 16.3951 26.6957C16.8488 26.736 16.8947 26.6196 16.5329 26.3468C12.7249 23.4607 9.35198 17.9813 10.1532 12.9327C10.4289 11.2038 11.1368 9.61 12.2769 8.15113C14.9103 4.77677 18.4771 3.88795 22.9772 5.48467C22.983 5.48467 22.9844 5.48754 22.9815 5.49328L22.9514 5.59667C22.937 5.63687 22.9083 5.65123 22.8652 5.63975C18.9366 4.52262 15.6872 5.39708 13.1169 8.26313C12.9245 8.47851 12.9704 8.56898 13.2547 8.53451C14.0775 8.43113 14.9951 8.43113 15.6154 9.10313C16.4654 10.0192 17.6055 10.4687 19.0357 10.4514C19.2541 10.4488 19.4355 10.5105 19.6212 10.5736C19.7395 10.6138 19.8596 10.6546 19.992 10.6797C20.0753 10.697 20.0954 10.7415 20.0523 10.8133L19.9704 10.9511C19.959 10.9655 19.9446 10.9712 19.9274 10.9684C18.8591 10.8047 17.8238 10.6166 16.8215 10.4041C16.2586 10.2863 15.7187 9.96323 15.2018 9.43482C15.0945 9.3248 14.9606 9.24594 14.8141 9.20652C13.9181 8.96816 12.9905 9.1218 12.0314 9.66744C11.9804 9.69653 11.941 9.74203 11.9198 9.7962C11.8986 9.85038 11.8969 9.9099 11.9151 9.96467L11.9538 10.0896C11.9682 10.1355 11.9969 10.1485 12.04 10.1284C13.5324 9.45677 14.2701 9.93795 15.0777 10.4646C15.622 10.8197 16.1981 11.1954 17.0584 11.2527C17.7448 11.2957 18.4699 11.3848 19.2338 11.5197C19.4779 11.5599 19.488 11.6317 19.264 11.7351C18.9194 11.8902 18.5948 11.8658 18.2904 11.6619C18.1669 11.5806 18.0228 11.5386 17.8769 11.5413C16.7741 11.5844 15.6024 11.537 14.7064 10.8262C13.8736 10.1714 12.8168 10.2432 11.536 11.0416C11.4538 11.0927 11.384 11.1614 11.3319 11.2426C11.2797 11.3238 11.2464 11.4156 11.2344 11.5111L11.2086 11.7179C11.177 11.9534 11.2617 12.0079 11.4627 11.8816C12.577 11.178 13.5807 11.1292 14.4738 11.7351C15.5637 12.4717 16.9723 12.3468 18.2086 12.153C18.2143 12.153 18.2172 12.1558 18.2172 12.1616L18.2387 12.2693C18.2474 12.321 18.2273 12.3511 18.1784 12.3597C17.1058 12.5837 15.5378 12.8508 14.5169 12.3037C13.9784 12.0108 13.3969 11.7394 12.7723 11.9548C12.1003 12.1874 11.4986 12.489 10.9674 12.8594C10.9071 12.8996 10.8769 12.9571 10.8769 13.0317L10.8683 14.4102C10.8666 14.425 10.8701 14.44 10.8782 14.4525C10.8863 14.4651 10.8985 14.4744 10.9127 14.479C10.9269 14.4835 10.9423 14.4831 10.9562 14.4776C10.9701 14.4721 10.9816 14.462 10.9889 14.449C11.569 13.6162 12.4262 13.2529 13.5606 13.3591C15.9384 13.5788 17.9674 12.8939 19.9575 11.6576C20.2993 11.448 20.3409 11.4953 20.0824 11.7997C19.9915 11.9075 19.9017 12.0129 19.8132 12.1167L19.813 12.1169C19.134 12.9132 18.5315 13.6198 18.1009 14.6601C18.0423 14.8019 18.0362 14.9598 18.0836 15.1052C18.131 15.2506 18.2288 15.3739 18.3594 15.4527C22.1329 17.73 23.5717 21.1905 22.6757 25.8342C22.6383 26.0381 22.7058 26.0841 22.8781 25.9721C29.2191 21.8582 30.3735 13.7511 26.0701 7.65575C26.0388 7.61074 25.9939 7.57688 25.942 7.55907C25.8901 7.54126 25.8339 7.54042 25.7815 7.55667C24.5926 7.89841 23.4984 8.48139 22.4991 9.30559C22.4876 9.31708 22.4761 9.31564 22.4646 9.30128L22.3871 9.21082C22.368 9.1895 22.3574 9.16189 22.3574 9.13328C22.3574 9.10468 22.368 9.07707 22.3871 9.05575C22.4761 8.96098 22.5436 8.85041 22.5895 8.72405C22.6843 8.46559 22.624 8.42395 22.4086 8.59913C21.6591 9.19933 20.7702 9.61287 19.7421 9.83975C19.7249 9.84262 19.7134 9.83687 19.7077 9.82251L19.7034 9.81821C19.6804 9.7579 19.6991 9.71482 19.7594 9.68898C20.4371 9.39605 21.0761 8.98969 21.6763 8.4699C21.7748 8.3844 21.854 8.27888 21.9085 8.16036C21.963 8.04185 21.9917 7.91307 21.9925 7.78262C21.9933 7.65217 21.9663 7.52304 21.9132 7.40385C21.8602 7.28467 21.7824 7.17816 21.6849 7.09144C21.1967 6.6578 20.4917 6.33328 19.5698 6.1179C19.3027 6.05472 19.3027 5.99298 19.5698 5.93267C20.3538 5.74744 21.2843 5.71298 22.0769 5.85513C22.591 5.94703 23.0878 5.93698 23.5674 5.82498C23.7138 5.79051 23.8517 5.81205 23.9809 5.88959C24.2738 6.07051 24.5868 6.2098 24.92 6.30744C25.3019 6.41944 25.335 6.35339 25.0191 6.10928C21.3546 3.28918 17.327 2.24959 12.936 2.99051C6.98562 3.99851 2.73249 7.30108 0.176592 12.8982C0.119156 13.0246 0.096182 13.0188 0.107669 12.881C0.529823 8.0779 3.34275 3.77451 7.27567 1.06928C7.86439 0.661489 8.59239 0.39872 9.45967 0.280977C10.2379 0.171848 11.0176 0.078515 11.7987 0.000976562ZM14.4997 21.617C16.8991 22.9394 19.4277 23.1419 22.0597 22.6077C22.2147 22.5762 22.2822 22.4814 22.2621 22.3234C21.8888 19.3684 20.4931 17.1485 18.0751 15.6637C17.9286 15.5718 17.7735 15.5517 17.6098 15.6034C17.2652 15.7068 16.9579 15.8921 16.688 16.1591C15.7446 17.0939 12.8412 20.7081 14.4997 21.617ZM73.2868 10.0422C71.3684 9.65454 69.9239 10.2935 68.9532 11.9592C68.0615 13.4884 68.4751 15.6121 69.8535 16.6718C71.5465 17.977 73.6314 17.8779 75.208 16.3401C75.2458 16.3023 75.2952 16.2787 75.3481 16.273C75.401 16.2673 75.4544 16.2799 75.4996 16.3088C75.5449 16.3376 75.5794 16.381 75.5976 16.432C75.6158 16.483 75.6167 16.5387 75.6 16.5899L73.9157 21.4533C73.8883 21.5333 73.8395 21.604 73.7748 21.6573C73.71 21.7106 73.632 21.7444 73.5495 21.7549C72.3147 21.9099 71.13 21.8123 69.9957 21.4619C69.9169 21.4379 69.845 21.3958 69.7858 21.3388C69.7267 21.2819 69.6819 21.2119 69.6554 21.1345L65.7483 9.65023C65.6962 9.49735 65.6863 9.3331 65.7196 9.1747C65.753 9.01631 65.8283 8.86959 65.9378 8.74993C68.9331 5.48182 72.4338 4.81844 76.44 6.75977C76.537 6.80742 76.6134 6.88886 76.6546 6.9888C76.6959 7.08875 76.6992 7.20031 76.664 7.30254L75.4492 10.8865C75.3745 11.1077 75.2396 11.1536 75.0443 11.0244C74.9126 10.9363 74.7861 10.8443 74.6608 10.7531C74.241 10.4477 73.8341 10.1517 73.2868 10.0422ZM44.451 15.1813C44.3936 15.3507 44.3362 15.3507 44.2787 15.1813L41.1729 6.02744C41.163 5.9984 41.1447 5.97321 41.1208 5.95543C41.0968 5.93764 41.0683 5.92818 41.0394 5.92836L37.5803 5.92406C37.4795 5.92411 37.3813 5.95571 37.2994 6.01442C37.2175 6.07314 37.156 6.15602 37.1237 6.25144L31.9501 21.5179C31.946 21.5302 31.9449 21.5433 31.9469 21.5561C31.9488 21.5689 31.9538 21.5811 31.9614 21.5916C31.9689 21.6021 31.9789 21.6107 31.9904 21.6166C32.0019 21.6225 32.0147 21.6256 32.0277 21.6256L35.8443 21.6471C35.9075 21.6471 35.9491 21.617 35.9692 21.5567L39.0664 12.4373C39.1468 12.2018 39.2272 12.2018 39.3077 12.4373L42.3274 21.3327C42.3991 21.5423 42.5456 21.6471 42.7667 21.6471H45.9157C46.0263 21.6469 46.1339 21.6122 46.2236 21.5481C46.3132 21.484 46.3802 21.3936 46.4154 21.2896L49.4437 12.3899C49.5068 12.2004 49.57 12.2004 49.6332 12.3899L52.7304 21.4921C52.7563 21.5725 52.8123 21.6141 52.8984 21.617C54.6847 21.6859 55.9727 21.6744 56.7624 21.5825C56.768 21.5822 56.7735 21.5806 56.7784 21.5777C56.7833 21.5748 56.7875 21.5708 56.7908 21.5659C56.7941 21.561 56.7963 21.5553 56.7974 21.5492C56.7984 21.5432 56.7983 21.5369 56.7969 21.5308L51.5544 6.13944C51.5343 6.07678 51.4951 6.02214 51.4425 5.98342C51.3898 5.94471 51.3264 5.92391 51.2615 5.92406H47.7852C47.656 5.92406 47.5698 5.9858 47.5267 6.10929L44.451 15.1813ZM60.6566 12.5019C60.6447 12.4689 60.6228 12.4403 60.5941 12.4199C60.5653 12.3996 60.5312 12.3887 60.4964 12.3887C60.4616 12.3887 60.4281 12.3996 60.4004 12.4199C60.3727 12.4403 60.3523 12.4689 60.3421 12.5019C59.627 14.6615 58.9464 16.7048 58.3003 18.6317C58.2658 18.7323 58.1969 18.7811 58.0935 18.7782C58.0546 18.7784 58.0163 18.7661 57.984 18.743C57.9516 18.7199 57.9267 18.6871 57.9126 18.649L56.1292 13.4797C56.0818 13.3431 56.0818 13.193 56.1292 13.0533L58.5113 6.05759C58.5254 6.01975 58.5507 5.9871 58.5838 5.964C58.6169 5.94091 58.6562 5.92847 58.6966 5.92836L62.2677 5.92405C62.3231 5.92402 62.377 5.9415 62.4219 5.974C62.4668 6.00649 62.5002 6.05233 62.5175 6.10498L67.7384 21.5136C67.7418 21.5242 67.7428 21.5355 67.7415 21.5465C67.7401 21.5575 67.7364 21.568 67.7306 21.5771C67.7247 21.5863 67.717 21.5938 67.7079 21.5993C67.6988 21.6047 67.6886 21.6078 67.6781 21.6084C66.4145 21.6601 65.1308 21.6672 63.827 21.6299C63.7696 21.6299 63.7323 21.6026 63.715 21.5481L60.6566 12.5019ZM79.9895 21.5567L83.0911 12.4847C83.1006 12.4593 83.1177 12.4374 83.1401 12.422C83.1624 12.4066 83.1888 12.3983 83.216 12.3983C83.2431 12.3983 83.2696 12.4066 83.2919 12.422C83.3142 12.4374 83.3313 12.4593 83.3409 12.4847L86.4338 21.5481C86.4427 21.5742 86.4595 21.5969 86.4819 21.6131C86.5043 21.6293 86.5311 21.6382 86.5587 21.6385H90.3021C90.3232 21.6383 90.344 21.633 90.3627 21.6232C90.3814 21.6134 90.3975 21.5993 90.4097 21.5821C90.4219 21.5649 90.4298 21.545 90.4328 21.5241C90.4358 21.5032 90.4339 21.4819 90.4271 21.4619L85.2104 6.01882C85.2015 5.99268 85.1847 5.96993 85.1624 5.95373C85.14 5.93753 85.1131 5.92867 85.0855 5.92836L81.3938 5.92405C81.3662 5.92436 81.3394 5.93322 81.317 5.94943C81.2946 5.96563 81.2778 5.98837 81.2689 6.01452L76.0049 21.4576C75.9981 21.4776 75.9961 21.4989 75.9991 21.5198C76.0022 21.5407 76.0101 21.5606 76.0223 21.5778C76.0345 21.595 76.0506 21.6091 76.0693 21.6189C76.088 21.6287 76.1087 21.634 76.1298 21.6342L79.8646 21.6471C79.8922 21.6468 79.9191 21.638 79.9414 21.6218C79.9638 21.6056 79.9806 21.5828 79.9895 21.5567ZM112 5.95872V6.30764L106.818 21.4836C106.802 21.5313 106.771 21.5728 106.73 21.6021C106.689 21.6315 106.64 21.6473 106.59 21.6473H103.294C103.007 21.6473 102.816 21.5109 102.721 21.2381L99.7618 12.4935C99.6699 12.2235 99.578 12.2235 99.4862 12.4935L96.4406 21.4621C96.4004 21.5798 96.3186 21.6387 96.1951 21.6387L92.848 21.6516C92.7522 21.6515 92.6589 21.6216 92.5809 21.566C92.503 21.5105 92.4442 21.432 92.4129 21.3415L87.2265 6.03626C87.2064 5.97882 87.2265 5.9501 87.2868 5.9501L91.1163 5.91564C91.1852 5.91564 91.2312 5.94867 91.2542 6.01472L94.2825 14.9403C94.3945 15.2734 94.5079 15.2734 94.6228 14.9403L97.5994 6.13964C97.6482 5.99605 97.7473 5.92426 97.8966 5.92426L101.347 5.92856C101.502 5.92856 101.606 6.00179 101.657 6.14826L104.651 14.9963C104.752 15.2921 104.852 15.2921 104.953 14.9963L107.951 6.14395C107.997 6.00897 108.091 5.94149 108.235 5.94149L112 5.95872ZM19.2812 8.03031C19.2812 8.89154 18.5831 9.5897 17.7218 9.5897C16.8606 9.5897 16.1624 8.89154 16.1624 8.03031C16.1624 7.16909 16.8606 6.47093 17.7218 6.47093C18.5831 6.47093 19.2812 7.16909 19.2812 8.03031ZM52.7434 25.7008C52.5194 25.7439 52.3413 25.695 52.2092 25.5543C52.1827 25.5249 52.1643 25.4891 52.1559 25.4505C52.1474 25.4118 52.1491 25.3717 52.1608 25.3339C52.1725 25.2961 52.1939 25.262 52.2228 25.2349C52.2516 25.2079 52.287 25.1888 52.3255 25.1795C52.7563 25.0762 53.177 25.0503 53.5877 25.102C53.76 25.125 53.8461 25.2226 53.8461 25.3949V26.4848C53.8461 26.6542 53.7715 26.7806 53.6221 26.8639C52.5825 27.4325 51.6679 27.398 50.8781 26.7605C50.0381 26.0755 50.0941 24.5592 50.9384 23.8959C51.6191 23.3646 52.4074 23.2784 53.3034 23.6374C53.3521 23.6568 53.3961 23.6861 53.4328 23.7236C53.4694 23.7611 53.4978 23.8058 53.516 23.855C53.5343 23.9041 53.5421 23.9565 53.5388 24.0088C53.5356 24.0611 53.5214 24.1121 53.4972 24.1586L53.4283 24.2879C53.3957 24.35 53.3407 24.3972 53.2748 24.4197C53.209 24.4422 53.1374 24.4382 53.0751 24.4085C52.0757 23.9317 51.4209 24.1888 51.1107 25.1795C51.0668 25.3204 51.0576 25.4699 51.0838 25.6154C51.1101 25.7608 51.171 25.898 51.2615 26.0152C51.6004 26.4546 52.08 26.6111 52.7003 26.4848C52.9071 26.4417 53.009 26.3153 53.0061 26.1057L53.0018 25.9119C52.999 25.7367 52.9128 25.6663 52.7434 25.7008ZM92.8825 25.5846C93.0203 25.7368 93.1984 25.7856 93.4166 25.731C93.4506 25.7224 93.4861 25.7216 93.5204 25.7287C93.5547 25.7357 93.5869 25.7504 93.6144 25.7717C93.6419 25.7929 93.664 25.8201 93.679 25.8512C93.694 25.8822 93.7015 25.9163 93.7009 25.9507L93.6966 26.1618C93.6937 26.3312 93.6105 26.4346 93.4468 26.472C90.8277 27.0276 91.6332 23.1723 93.6061 24.4043C93.6578 24.4365 93.719 24.4502 93.7799 24.4431C93.8409 24.4361 93.898 24.4088 93.9421 24.3655L94.1877 24.1156C94.3054 24.0008 94.2968 23.8974 94.1618 23.8055C92.9342 22.9612 91.2154 23.5384 90.9828 25.0806C90.6855 27.0578 92.7489 27.7169 94.2609 26.8812C94.3815 26.8151 94.4418 26.7132 94.4418 26.5753L94.4462 25.3089C94.4462 25.1739 94.3787 25.1007 94.2437 25.0892C93.8388 25.0576 93.4338 25.0791 93.0289 25.1538C92.7245 25.2112 92.6757 25.3548 92.8825 25.5846ZM59.627 26.7388C59.538 27.0892 59.3226 27.2701 58.9809 27.2816C58.7109 27.293 58.6291 27.1753 58.7353 26.9283L60.0707 23.788C60.1132 23.686 60.185 23.5988 60.277 23.5375C60.369 23.4761 60.4771 23.4434 60.5876 23.4434C60.6982 23.4434 60.8063 23.4761 60.8983 23.5375C60.9903 23.5988 61.0621 23.686 61.1046 23.788L62.4529 26.9542C62.5362 27.1523 62.4701 27.2586 62.2547 27.2729C61.8354 27.2988 61.5885 27.115 61.5138 26.7216C61.4707 26.4947 61.3343 26.3813 61.1046 26.3813L60.0793 26.3856C59.8381 26.3856 59.6873 26.5033 59.627 26.7388ZM60.3981 24.6539L60.1827 25.3689C60.1282 25.5413 60.1913 25.6303 60.3723 25.636L60.7126 25.6446C61.0428 25.6504 61.1189 25.5125 60.9409 25.2311L60.5618 24.6323C60.5527 24.6175 60.5394 24.6056 60.5236 24.5981C60.5079 24.5906 60.4903 24.5878 60.473 24.5901C60.4557 24.5924 60.4394 24.5996 60.4261 24.6109C60.4128 24.6222 60.4031 24.6371 60.3981 24.6539ZM68.2769 27.0319L68.2726 25.227C68.2726 24.9398 68.3516 24.9154 68.5095 25.1537L69.203 26.1919C69.2179 26.2139 69.238 26.2318 69.2615 26.2441C69.285 26.2564 69.3112 26.2626 69.3378 26.2621C69.3643 26.2617 69.3903 26.2547 69.4134 26.2416C69.4365 26.2286 69.456 26.21 69.4701 26.1876L70.1852 25.0417C70.3633 24.7546 70.4508 24.779 70.448 25.115L70.4264 27.0276C70.4236 27.174 70.4954 27.2473 70.6418 27.2473L70.9692 27.243C71.1128 27.2401 71.1846 27.1683 71.1846 27.0276V23.8184C71.1846 23.5226 71.0381 23.3991 70.7452 23.4479C70.2857 23.5254 69.9153 23.9189 69.6338 24.6282C69.473 25.0389 69.2835 25.0518 69.0652 24.667C69.0175 24.5809 68.9719 24.4914 68.9263 24.4017C68.6591 23.8764 68.3895 23.3462 67.6609 23.4823C67.4972 23.5111 67.4154 23.6087 67.4154 23.7753V27.0319C67.4154 27.1755 67.4872 27.2458 67.6307 27.243H68.0615C68.2051 27.243 68.2769 27.1726 68.2769 27.0319ZM77.1109 23.4782L76.6457 23.4774C76.5482 23.4772 76.4689 23.5561 76.4688 23.6537L76.4629 27.0481C76.4627 27.1457 76.5416 27.2249 76.6392 27.225L77.1044 27.2259C77.2019 27.226 77.2811 27.1471 77.2813 27.0496L77.2872 23.6551C77.2874 23.5576 77.2085 23.4783 77.1109 23.4782ZM85.0769 23.6931L85.0812 25.399C85.0812 25.6431 85.0022 25.6718 84.8443 25.4851C84.3992 24.9567 83.9627 24.3867 83.5348 23.775C83.3323 23.4821 83.048 23.4002 82.7077 23.4864C82.5641 23.5208 82.4923 23.6142 82.4923 23.7664V27.0359C82.4923 27.1795 82.5655 27.2499 82.712 27.247L83.2504 27.2384C83.3165 27.2355 83.3495 27.201 83.3495 27.135L83.3538 25.1965C83.3538 24.8979 83.4386 24.8734 83.608 25.1233C84.0215 25.7436 84.4537 26.3151 84.9046 26.8378C85.522 27.5528 85.8308 27.438 85.8308 26.4931V23.6974C85.8308 23.5567 85.7604 23.4849 85.6197 23.4821L85.2923 23.4778C85.1487 23.4778 85.0769 23.5495 85.0769 23.6931Z" fill="#00AB55"/>
</g>
<defs>
<clipPath id="clip0_4132_7047">
<rect width="112" height="28" fill="white" transform="translate(0 0.000976562)"/>
</clipPath>
</defs>
</svg>

<svg xmlns="http://www.w3.org/2000/svg" width="112" height="28" fill="none"><g clip-path="url(#a)"><path fill="#00AB55" fill-rule="evenodd" d="M11.799.001h2.434c.715.115 1.423.224 2.123.327 3.535.517 6.463 2.026 8.784 4.528a5.366 5.366 0 0 1 1.05 1.667c.225.56.506 1.093.845 1.598 1.941 2.886 2.613 6.01 2.016 9.37-.767 4.31-3.22 7.526-7.357 9.648-.219.112-.279.056-.181-.168a9.557 9.557 0 0 0 .822-3.528.204.204 0 0 0-.168-.204.203.203 0 0 0-.094.006c-2.315.741-4.63.578-6.944-.49-.242-.11-.288-.057-.138.159a13.33 13.33 0 0 0 4.734 4.23c.442.235.413.375-.086.418-6.28.545-10.907-1.904-13.88-7.35-.025-.048-.015-.087.03-.116h.005c.043-.026.079-.02.108.018 2.524 3.407 6.263 6.19 10.493 6.582.454.04.5-.076.138-.35-3.808-2.885-7.181-8.365-6.38-13.413.276-1.73.984-3.323 2.124-4.782 2.633-3.374 6.2-4.263 10.7-2.666.006 0 .007.003.005.008l-.03.104c-.015.04-.044.054-.087.043-3.928-1.117-7.178-.243-9.748 2.623-.193.216-.147.306.138.272.822-.104 1.74-.104 2.36.568.85.916 1.99 1.366 3.42 1.348.22-.002.4.06.586.123.119.04.239.08.371.106.083.017.103.062.06.133l-.082.138a.043.043 0 0 1-.043.017 55.537 55.537 0 0 1-3.105-.564c-.563-.118-1.103-.44-1.62-.97a.851.851 0 0 0-.388-.227c-.896-.239-1.823-.085-2.783.46a.256.256 0 0 0-.111.13.248.248 0 0 0-.005.168l.039.125c.014.046.043.059.086.038 1.492-.671 2.23-.19 3.038.337.544.355 1.12.73 1.98.788.687.043 1.412.132 2.176.267.244.04.254.112.03.215-.345.155-.67.13-.974-.073a.728.728 0 0 0-.413-.12c-1.103.042-2.275-.005-3.17-.716-.833-.655-1.89-.583-3.171.216a.65.65 0 0 0-.302.47l-.025.206c-.032.235.053.29.254.164 1.114-.704 2.118-.753 3.01-.147 1.09.737 2.5.612 3.736.418.005 0 .008.003.008.009l.022.107c.008.052-.012.082-.06.09-1.073.225-2.641.492-3.662-.055-.539-.293-1.12-.565-1.745-.35a7.324 7.324 0 0 0-1.805.905.195.195 0 0 0-.09.173l-.009 1.378a.064.064 0 0 0 .088.068.065.065 0 0 0 .033-.029c.58-.833 1.437-1.196 2.572-1.09 2.377.22 4.406-.465 6.396-1.701.342-.21.384-.163.125.142l-.269.317c-.679.796-1.281 1.503-1.712 2.543a.643.643 0 0 0 .258.793c3.774 2.277 5.213 5.738 4.317 10.381-.038.204.03.25.202.138 6.341-4.114 7.495-12.22 3.192-18.316a.258.258 0 0 0-.288-.1 9.05 9.05 0 0 0-3.283 1.75c-.011.011-.023.01-.034-.005l-.078-.09a.116.116 0 0 1 0-.155.955.955 0 0 0 .203-.332c.094-.258.034-.3-.181-.125-.75.6-1.639 1.014-2.667 1.24-.017.004-.029-.002-.034-.016l-.005-.005c-.023-.06-.004-.103.056-.129a7.424 7.424 0 0 0 1.917-1.22.918.918 0 0 0 .009-1.378c-.488-.433-1.193-.758-2.115-.973-.267-.063-.267-.125 0-.185a6.465 6.465 0 0 1 2.507-.078 3.66 3.66 0 0 0 1.49-.03.536.536 0 0 1 .414.065c.293.18.606.32.939.417.382.112.415.046.1-.198-3.665-2.82-7.693-3.86-12.084-3.118C6.986 3.999 2.732 7.3.176 12.898c-.057.127-.08.12-.068-.017C.53 8.078 3.343 3.775 7.276 1.069 7.864.661 8.592.4 9.46.281c.778-.11 1.558-.202 2.339-.28Zm2.7 21.616c2.4 1.322 4.929 1.525 7.56.99.156-.03.223-.126.203-.284-.373-2.955-1.769-5.175-4.187-6.66a.535.535 0 0 0-.465-.06 2.194 2.194 0 0 0-.922.556c-.943.935-3.847 4.55-2.188 5.458Zm58.788-11.575c-1.919-.387-3.363.252-4.334 1.917-.892 1.53-.478 3.653.9 4.713 1.694 1.305 3.778 1.206 5.355-.332a.233.233 0 0 1 .292-.031.242.242 0 0 1 .1.28l-1.684 4.864a.455.455 0 0 1-.367.302 8.374 8.374 0 0 1-3.553-.293.521.521 0 0 1-.34-.328L65.747 9.65a.9.9 0 0 1 .19-.9c2.995-3.268 6.496-3.932 10.502-1.99a.444.444 0 0 1 .224.543l-1.215 3.583c-.075.222-.21.268-.405.138-.131-.088-.258-.18-.383-.27-.42-.306-.827-.602-1.374-.712Zm-28.836 5.14c-.057.169-.115.169-.172 0l-3.106-9.155a.15.15 0 0 0-.052-.072.135.135 0 0 0-.082-.027l-3.459-.004a.482.482 0 0 0-.456.327L31.95 21.518a.081.081 0 0 0 .011.074.081.081 0 0 0 .067.034l3.816.021c.063 0 .105-.03.125-.09l3.097-9.12c.08-.235.161-.235.242 0l3.02 8.896c.071.21.218.314.439.314h3.149a.531.531 0 0 0 .5-.357l3.028-8.9c.063-.19.126-.19.19 0l3.096 9.102c.026.08.082.122.168.125 1.787.069 3.075.057 3.864-.035a.035.035 0 0 0 .016-.004.039.039 0 0 0 .013-.012.044.044 0 0 0 .006-.017.048.048 0 0 0 0-.018L51.554 6.139a.305.305 0 0 0-.293-.215h-3.476c-.129 0-.215.062-.258.185l-3.076 9.072Zm16.206-2.68a.173.173 0 0 0-.16-.113.162.162 0 0 0-.155.113c-.715 2.16-1.396 4.203-2.042 6.13-.034.1-.103.15-.206.146a.187.187 0 0 1-.11-.035.2.2 0 0 1-.071-.094l-1.784-5.17a.657.657 0 0 1 0-.426l2.382-6.995a.199.199 0 0 1 .186-.13l3.57-.004a.263.263 0 0 1 .25.181l5.221 15.409c.004.01.005.021.004.033a.07.07 0 0 1-.034.053.066.066 0 0 1-.03.008 55.423 55.423 0 0 1-3.851.022c-.057 0-.095-.027-.112-.082l-3.058-9.046Zm19.333 9.055 3.101-9.072a.132.132 0 0 1 .125-.087.134.134 0 0 1 .125.087l3.093 9.063a.133.133 0 0 0 .125.09h3.743a.133.133 0 0 0 .125-.176L85.21 6.019a.134.134 0 0 0-.124-.09l-3.692-.005a.133.133 0 0 0-.125.09l-5.264 15.444a.134.134 0 0 0 .125.176l3.735.013a.133.133 0 0 0 .125-.09ZM112 5.959v.349l-5.182 15.176a.24.24 0 0 1-.228.163h-3.296c-.287 0-.478-.136-.573-.409l-2.96-8.745c-.091-.27-.183-.27-.275 0l-3.045 8.97c-.04.117-.122.176-.246.176l-3.347.013a.46.46 0 0 1-.435-.31L87.227 6.036c-.02-.057 0-.086.06-.086l3.83-.034c.068 0 .114.033.137.099l3.028 8.925c.112.333.226.333.34 0l2.977-8.8c.05-.144.148-.216.298-.216l3.45.005c.155 0 .259.073.31.22l2.994 8.847c.101.296.201.296.302 0l2.998-8.852c.046-.135.14-.203.284-.203L112 5.96ZM19.281 8.03a1.56 1.56 0 1 1-3.119 0 1.56 1.56 0 0 1 3.12 0ZM52.743 25.7c-.224.044-.402-.005-.534-.146a.227.227 0 0 1 .014-.32.229.229 0 0 1 .102-.055 3.5 3.5 0 0 1 1.263-.077c.172.023.258.12.258.293v1.09c0 .17-.074.296-.224.379-1.04.569-1.954.534-2.744-.104-.84-.684-.784-2.2.06-2.864.681-.531 1.47-.618 2.365-.259a.375.375 0 0 1 .194.522l-.069.129a.273.273 0 0 1-.153.132.265.265 0 0 1-.2-.012c-1-.476-1.654-.22-1.964.771a.918.918 0 0 0 .15.836c.34.44.819.596 1.44.47.206-.043.308-.17.305-.38l-.004-.193c-.003-.175-.09-.246-.259-.211Zm40.14-.115c.137.152.315.2.534.146a.232.232 0 0 1 .197.04.222.222 0 0 1 .087.18l-.004.21c-.003.17-.087.274-.25.311-2.62.556-1.814-3.3.16-2.068a.277.277 0 0 0 .336-.039l.245-.25c.117-.114.109-.218-.026-.31-1.228-.844-2.947-.267-3.18 1.276-.296 1.977 1.767 2.636 3.279 1.8a.326.326 0 0 0 .18-.306l.005-1.266c0-.135-.067-.208-.202-.22a4.667 4.667 0 0 0-1.215.065c-.304.057-.353.2-.147.43Zm-33.256 1.154c-.089.35-.304.531-.646.543-.27.011-.352-.107-.246-.354l1.336-3.14a.56.56 0 0 1 1.034 0l1.348 3.166c.083.198.017.305-.198.319-.42.026-.666-.158-.741-.551-.043-.227-.18-.34-.41-.34l-1.025.004c-.24 0-.392.117-.452.353Zm.771-2.085-.215.715c-.055.172.008.261.19.267l.34.009c.33.005.406-.133.228-.414l-.38-.599a.09.09 0 0 0-.163.022Zm7.879 2.378-.004-1.805c0-.287.079-.312.237-.073l.693 1.038a.16.16 0 0 0 .21.05.16.16 0 0 0 .057-.054l.715-1.146c.178-.287.266-.263.263.073l-.022 1.913c-.002.146.07.22.216.22l.327-.005c.144-.003.216-.075.216-.215v-3.21c0-.295-.147-.419-.44-.37-.46.077-.83.47-1.111 1.18-.161.41-.35.424-.569.039a8.468 8.468 0 0 1-.139-.265c-.267-.526-.537-1.056-1.265-.92-.164.03-.246.127-.246.293v3.257c0 .143.072.214.216.211h.43c.144 0 .216-.07.216-.211Zm8.834-3.554h-.465a.177.177 0 0 0-.177.176l-.006 3.394c0 .098.079.177.176.177h.465a.177.177 0 0 0 .177-.175l.006-3.395a.177.177 0 0 0-.176-.177Zm7.966.215.004 1.706c0 .244-.079.273-.237.086a24.053 24.053 0 0 1-1.31-1.71c-.202-.293-.486-.375-.826-.289-.144.035-.216.128-.216.28v3.27c0 .143.073.214.22.211l.538-.009c.067-.003.1-.037.1-.103l.004-1.939c0-.298.085-.323.254-.073.413.62.846 1.192 1.297 1.715.617.715.926.6.926-.345v-2.796c0-.14-.07-.212-.211-.215l-.328-.004c-.143 0-.215.071-.215.215Z" clip-rule="evenodd"/></g><defs><clipPath id="a"><path fill="#fff" d="M0 .001h112v28H0z"/></clipPath></defs></svg>
